icons/delete-bin-5-fill.svg

<svg viewBox="0 0 24 24" fill="currentColor" xmlns="http://www.w3.org/2000/svg"><path d="M4 8H20V21C20 21.5523 19.5523 22 19 22H5C4.44772 22 4 21.5523 4 21V8ZM7 5V3C7 2.44772 7.44772 2 8 2H16C16.5523 2 17 2.44772 17 3V5H22V7H2V5H7ZM9 4V5H15V4H9ZM9 12V18H11V12H9ZM13 12V18H15V12H13Z"/></svg>

<svg xmlns="http://www.w3.org/2000/svg" viewBox="0 0 24 24">
    <g>
        <path fill="none" d="M0 0h24v24H0z"/>
        <path d="M4 8h16v13a1 1 0 0 1-1 1H5a1 1 0 0 1-1-1V8zm3-3V3a1 1 0 0 1 1-1h8a1 1 0 0 1 1 1v2h5v2H2V5h5zm2-1v1h6V4H9zm0 8v6h2v-6H9zm4 0v6h2v-6h-2z"/>
    </g>
</svg>
